WorldWind/resources/milstd2525/tacgrp/g-gpgpuud-----x.svg

<?xml version="1.0" encoding="UTF-8" standalone="no"?>
<!-- SVG content generated using Symbology Configuration Management System (SCMS) -->

<!-- Systematic Software Engineering Ltd. - www.systematic.co.uk - do not remove  -->

<svg
    xmlns:dc="http://purl.org/dc/elements/1.1/"
    xmlns:cc="http://creativecommons.org/ns#"
    xmlns:rdf="http://www.w3.org/1999/02/22-rdf-syntax-ns#"
    xmlns:svg="http://www.w3.org/2000/svg"
    xmlns="http://www.w3.org/2000/svg"
    xmlns:sodipodi="http://sodipodi.sourceforge.net/DTD/sodipodi-0.dtd"
    xmlns:inkscape="http://www.inkscape.org/namespaces/inkscape"
    id="G*GPGPUUD-****X"
    width="252.60001"
    height="253.125"
    viewBox="0 0 252.60001 253.125"
    version="1.1"
    inkscape:version="0.48.2 r9819"
    sodipodi:docname="g-gpgpuud-----x.svg">
    <metadata
        id="metadata14">
        <rdf:RDF>
            <cc:Work
                rdf:about="">
                <dc:format>image/svg+xml</dc:format>
                <dc:type
                    rdf:resource="http://purl.org/dc/dcmitype/StillImage"/>
            </cc:Work>
        </rdf:RDF>
    </metadata>
    <defs
        id="defs12"/>
    <sodipodi:namedview
        pagecolor="#ffffff"
        bordercolor="#666666"
        borderopacity="1"
        objecttolerance="10"
        gridtolerance="10"
        guidetolerance="10"
        inkscape:pageopacity="0"
        inkscape:pageshadow="2"
        inkscape:window-width="640"
        inkscape:window-height="480"
        id="namedview10"
        showgrid="false"
        inkscape:zoom="0.59"
        inkscape:cx="120"
        inkscape:cy="133.125"
        inkscape:window-x="0"
        inkscape:window-y="0"
        inkscape:window-maximized="0"
        inkscape:current-layer="G*GPGPUUD-****X"/>
    <g
        id="g3"
        style="fill:#ffffff"
        transform="translate(-80,-80)">
        <svg
            viewBox="0 0 400 400"
            id="_0.G-GPGPUUD-----X"
            width="400"
            height="400"
            version="1.1"
            style="fill:#ffffff"
            inkscape:version="0.48.2 r9819">
            <g
                transform="matrix(5,0,0,5,80,80)"
                id="g6"
                style="fill:#ffffff">
                <path
                    d="m 50.52,25.342 c 0,7.125 -2.432,13.121 -7.291,17.986 -4.859,4.863 -10.85,7.297 -17.969,7.297 -7.039,0 -13.01,-2.453 -17.91,-7.355 C 2.451,38.363 0,32.389 0,25.342 0,18.217 2.432,12.211 7.289,7.326 12.15,2.443 18.141,0 25.26,0 c 7.078,0 13.059,2.453 17.939,7.357 4.879,4.905 7.321,10.899 7.321,17.985 z M 26.58,48.75 c -0.641,0.082 -1.301,0.125 -1.98,0.125 -6,0 -11.299,-2.354 -15.898,-7.061 C 6.382,39.459 4.712,37.115 3.69,34.783 2.672,32.447 2.102,29.644 1.981,26.375 l 23.77,0 0,22.375 z M 25.5,26.125 25.5,1.875 C 18.918,1.875 13.332,4.176 8.742,8.777 3.996,13.539 1.781,19.322 2.1,26.125 z M 41.645,9.117 c 3.238,3.258 5.297,6.033 6.176,8.326 0.6,1.488 0.9,3.863 0.9,7.121 0,0.605 -0.033,1.209 -0.096,1.811 l -22.875,0 0,-24.5 c 5.877,0.082 11.176,2.496 15.895,7.242 z m 6.98,17.258 -22.645,0 0,22.375 c 6.047,-0.32 11.291,-2.6 15.736,-6.838 4.606,-4.4 6.909,-9.58 6.909,-15.537 z"
                    id="path8"
                    style="fill:#ffffff"
                    inkscape:connector-curvature="0"/>
            </g>
        </svg>
    </g>
</svg>

<?xml version="1.0" encoding="UTF-8" standalone="no"?>
<!-- SVG content generated using Symbology Configuration Management System (SCMS) -->

<!-- Systematic Software Engineering Ltd. - www.systematic.co.uk - do not remove  -->

<svg
   xmlns:dc="http://purl.org/dc/elements/1.1/"
   xmlns:cc="http://creativecommons.org/ns#"
   xmlns:rdf="http://www.w3.org/1999/02/22-rdf-syntax-ns#"
   xmlns:svg="http://www.w3.org/2000/svg"
   xmlns="http://www.w3.org/2000/svg"
   xmlns:sodipodi="http://sodipodi.sourceforge.net/DTD/sodipodi-0.dtd"
   xmlns:inkscape="http://www.inkscape.org/namespaces/inkscape"
   id="G*GPGPUUD-****X"
   width="400px"
   height="400px"
   viewBox="0 0 400 400"
   version="1.1"
   inkscape:version="0.48.2 r9819"
   sodipodi:docname="g-gpgpuud-----x.svg">
  <metadata
     id="metadata14">
    <rdf:RDF>
      <cc:Work
         rdf:about="">
        <dc:format>image/svg+xml</dc:format>
        <dc:type
           rdf:resource="http://purl.org/dc/dcmitype/StillImage" />
      </cc:Work>
    </rdf:RDF>
  </metadata>
  <defs
     id="defs12" />
  <sodipodi:namedview
     pagecolor="#ffffff"
     bordercolor="#666666"
     borderopacity="1"
     objecttolerance="10"
     gridtolerance="10"
     guidetolerance="10"
     inkscape:pageopacity="0"
     inkscape:pageshadow="2"
     inkscape:window-width="640"
     inkscape:window-height="480"
     id="namedview10"
     showgrid="false"
     inkscape:zoom="0.59"
     inkscape:cx="200"
     inkscape:cy="200"
     inkscape:window-x="0"
     inkscape:window-y="0"
     inkscape:window-maximized="0"
     inkscape:current-layer="G*GPGPUUD-****X" />
  <g
     id="g3"
     style="fill:#ffffff">
    <svg
       viewBox="0 0 400 400"
       id="_0.G-GPGPUUD-----X"
       width="400px"
       height="400px"
       version="1.1"
       style="fill:#ffffff">
      <g
         transform="translate(80 80) scale(5 5)"
         id="g6"
         style="fill:#ffffff">
        <path
           d="M50.52 25.342 C50.52 32.467 48.088 38.463 43.229 43.328 C38.37 48.191 32.379 50.625     25.26 50.625 C18.221 50.625 12.25 48.172 7.35 43.27 C2.451 38.363 0 32.389     0 25.342 C0 18.217 2.432 12.211 7.289 7.326 C12.15 2.443 18.141 0 25.26 0     C32.338 0 38.319 2.453 43.199 7.357 C48.078 12.262 50.52 18.256 50.52 25.342     zM26.58 48.75 C25.939 48.832 25.279 48.875 24.6 48.875 C18.6 48.875 13.301     46.521 8.702 41.814 C6.382 39.459 4.712 37.115 3.69 34.783 C2.672 32.447 2.102     29.644 1.981 26.375 L25.751 26.375 L25.751 48.75 zM25.5 26.125 L25.5 1.875     C18.918 1.875 13.332 4.176 8.742 8.777 C3.996 13.539 1.781 19.322 2.1 26.125     zM41.645 9.117 C44.883 12.375 46.942 15.15 47.821 17.443 C48.421 18.931 48.721     21.306 48.721 24.564 C48.721 25.169 48.688 25.773 48.625 26.375 L25.75     26.375 L25.75 1.875 C31.627 1.957 36.926 4.371 41.645 9.117 zM48.625 26.375     L25.98 26.375 L25.98 48.75 C32.027 48.43 37.271 46.15 41.716 41.912 C46.322     37.512 48.625 32.332 48.625 26.375 z"
           id="path8"
           style="fill:#ffffff" />
      </g>
    </svg>
  </g>
</svg>
